!!!OTL: 89d. Graf und Nonne.
!!!ARE: Europa, Mitteleuropa, Deutschland, Mosel, Veldenz; Gornhausen
!!!SCT: E0089F
!!!TXL: @@DE
!!!YEM: Copyright 1995, estate of Helmut Schaffrath.
**kern	**text
*ICvox	*
*M6/8	*
*k[f#c#g#]	*
*A:	*
!LO:TX:a:t=Mäßig bewegt.	!
!LO:TX:a:t=Aus Veldenʒ u. Gornhauſen a. d. Moſel. Becker Nr. 7d.	!
{8e	Jch
=1	=1
8c#L	ſtund
8eJ	.
8a	auf
8c#L	ho-
8eJ	.
8cc#	-hen
=2	=2
8cc#	Ber-
8b	-gen,
8r	.
4r}	.
{8e	ſchaut
=3	=3
8eL	in
8g#J	.
8b	das
8ddL	tie-
8cc#J	.
8b	-fe
=4	=4
4.a	Thal,
4r}	.
{16aL	da
16cc#J	.
=5	=5
8ee	ſah
8ee	ich
8ee	ein
8eeL	Schifflein
8ddJ	.
8cc#	.
=6	=6
8dd	ſchwimmen,
8b	.
8r	.
4r}	.
{8e	wo-
=7	=7
8eL	-rin
8g#J	.
8b	drei
8ddL	Gra-
8cc#J	.
8b	-fen
=8	=8
4.a	warn.
4r}	.
==	==
!!!AGN: erzaehlendes Volks - Lied, Sage, Liebe, Leid, Ballade ?
!!!ONB: ESAC (Essen Associative Code) Database: ERK1
!!!AMT: compound duple
!!!AIN: vox
!!!EED: Helmut Schaffrath
!!!EEV: 1.0
!!!GTL: Liebesgeschichten mit tragischem Schluss
!!!URL-scan: https://rosdok.uni-rostock.de/mcrviewer/recordIdentifier/rosdok_ppn745146120/iview2/phys_0382.iview2?x=-422.27491384562836&y=2178.6185473110527&scale=0.554360769283424&rotation=0&layout=singlePageLayout
!!!ENC: Anna Maria Matuszewska
!!!EEV: 2024/11/28
*-	*-
